X: 3
T: Irishman's Heart to the Ladies
I: Irishman's Heart to the Ladies	J-17	A	jig
M: 6/8
R: jig
K: A
a| "A"ecA "D"BAF| "A"AFE EFA| "Bm"Bdc BAB| "E"cBB B2 a|    "A"ecA "D"BAF| "A"AFE EFA| "Bm"Bdc "E7"BAB| "A"cAA A2 :|
|:A| "A"cee "D"dff| "A"cee ecA| cde "D"eaf| "A"ecA "E"B2 A|    "A"cee "D"dff| "A"cee ecA| "Bm"Bdc "E7"BAB| "A"cAA A2 :|
%%text Roaring Jelly  J-17
%%text 05/27/09 

#include "RightHeader.h"
% ---------- set 31 ----------
% Flower's of Edinburgh (G) / Pat d'Budgie (C) / Batchelder's (F)
$SmallLMargin
%%text Set 31
%%vskip -1cm
%%scale .7
